svg/free/boat-alt.svg

<svg version="1.1" xmlns="http://www.w3.org/2000/svg" width="24" height="24" viewBox="0 0 24 24">
<title>boat-alt</title>
<path d="M20.4 11.625l-1.141-3.138c-0.217-0.58-0.766-0.986-1.41-0.987h-1.84l-0.75-4.5h-4.896l0.75 4.5h-1.854l-0.75-4.5h-4.896l0.75 4.5h-2.115v4.125h-1.5v9.375h20.050l2.45-7.759v-1.616zM12.135 4.5h1.854l0.5 3h-1.854zM5.385 4.5h1.854l0.5 3h-1.854zM3.75 9h14.1l0.955 2.625h-15.054zM19.7 19.5h-17.45v-6.375h19.464z"></path>
<path d="M3.75 15h1.5v1.5h-1.5v-1.5z"></path>
<path d="M6.75 15h1.5v1.5h-1.5v-1.5z"></path>
<path d="M9.75 15h1.5v1.5h-1.5v-1.5z"></path>
<path d="M12.75 15h1.5v1.5h-1.5v-1.5z"></path>
<path d="M15.75 15h1.5v1.5h-1.5v-1.5z"></path>
</svg>

<svg xmlns="http://www.w3.org/2000/svg" width="24" height="24" viewBox="0 0 24 24"><path d="M20.4 11.625l-1.141-3.138a1.508 1.508 0 00-1.41-.987h-1.84l-.75-4.5h-4.896l.75 4.5H9.259L8.509 3H3.613l.75 4.5H2.248v4.125h-1.5V21h20.05l2.45-7.759v-1.616zM12.135 4.5h1.854l.5 3h-1.854zm-6.75 0h1.854l.5 3H5.885zM3.75 9h14.1l.955 2.625H3.751zM19.7 19.5H2.25v-6.375h19.464z"/><path d="M3.75 15h1.5v1.5h-1.5V15zM6.75 15h1.5v1.5h-1.5V15zM9.75 15h1.5v1.5h-1.5V15zM12.75 15h1.5v1.5h-1.5V15zM15.75 15h1.5v1.5h-1.5V15z"/></svg>
